assets/logistics-color/LogisticsColor17.svg

<svg xmlns="http://www.w3.org/2000/svg" id="Layer_1" x="0" y="0" version="1.1" viewBox="0 0 256 256" xml:space="preserve"><style>.st0{fill:#fff}.st1{fill:#48386a}.st2{fill:#9feaff}</style><path d="M83.5 231h103.4v16.5H83.5z" class="st0"/><path d="M187 248.4H83.5c-.6 0-1-.4-1-1V231c0-.6.4-1 1-1H187c.6 0 1 .4 1 1v16.5c0 .5-.5.9-1 .9zm-102.5-2H186V232H84.5v14.4z" class="st1"/><path d="M142 214.5V231H83.5l.1-16.5z" class="st0"/><path d="M142 232H83.5c-.3 0-.5-.1-.7-.3-.2-.2-.3-.4-.3-.7v-16.5c0-.6.4-1 1-1H142c.6 0 1 .4 1 1V231c0 .5-.5 1-1 1zm-57.5-2H141v-14.5H84.6l-.1 14.5z" class="st1"/><path d="M219.1 185.8v10.8H187V231h-45v-62.7h77.1v13.2z" class="st0"/><path d="M187 232h-45c-.6 0-1-.4-1-1v-62.6c0-.6.4-1 1-1h77.1c.6 0 1 .4 1 1v13.2c0 .6-.4 1-1 1s-1-.4-1-1v-12.2H143V230h43v-33.3c0-.6.4-1 1-1h31.1v-9.8c0-.6.4-1 1-1s1 .4 1 1v10.8c0 .6-.4 1-1 1H188V231c0 .5-.5 1-1 1z" class="st1"/><path d="M160.9 8.5H187v159.8h-45v46.2H83.6l-.1-206h69z" class="st0"/><path d="M142 215.5H83.6c-.6 0-1-.4-1-1V8.6c0-.3.1-.5.3-.7s.4-.3.7-.3h68.9c.6 0 1 .4 1 1s-.4 1-1 1h-68v203.9H141v-45.1c0-.6.4-1 1-1h44V9.5h-25c-.6 0-1-.4-1-1s.4-1 1-1h26c.6 0 1 .4 1 1v159.8c0 .6-.4 1-1 1h-44v45.1c0 .6-.5 1.1-1 1.1z" class="st1"/><path d="M103.1 78.6V21.4h73.7V108h-73.7V85.5zM147.5 118.6h29.3v49.7h-29.3zM133 143.5v59h-29.9v-83.9H133v18.2z" class="st2"/><path d="M142 209.2H88.8c-.3 0-.5-.2-.5-.5V14.4c0-.3.2-.5.5-.5H108c.3 0 .5.2.5.5s-.2.5-.5.5H89.3v193.3h52.1v-39.9c0-.3.2-.5.5-.5h39.2V14.9h-69.5c-.3 0-.5-.2-.5-.5s.2-.5.5-.5h70c.3 0 .5.2.5.5v153.9c0 .3-.2.5-.5.5h-39.2v39.9c.1.3-.1.5-.4.5z" class="st1"/><path d="M172.9 109H97.6c-.6 0-1-.4-1-1V85.5c0-.6.4-1 1-1s1 .4 1 1V107h73.3V22.4H98.6v56.2c0 .6-.4 1-1 1s-1-.4-1-1V21.4c0-.6.4-1 1-1h75.3c.6 0 1 .4 1 1V108c0 .6-.4 1-1 1z" class="st1"/><path d="M167.1 102.7h-63.6c-.3 0-.5-.2-.5-.5V27.3c0-.3.2-.5.5-.5h63.6c.3 0 .5.2.5.5v74.9c0 .3-.3.5-.5.5zm-63.2-1h62.6V27.8h-62.6v73.9z" class="st1"/><path d="M117.9 88.3c-.1 0-.2 0-.3-.1-.2-.2-.2-.5 0-.7l40.6-46c.2-.2.5-.2.7 0 .2.2.2.5 0 .7l-40.6 46c-.1 0-.3.1-.4.1zM131 86c-.1 0-.2 0-.3-.1-.2-.2-.2-.5-.1-.7l25.2-30.6c.2-.2.5-.2.7-.1.2.2.2.5.1.7l-25.2 30.6c-.1.2-.2.2-.4.2zM172.9 169.3H142c-.6 0-1-.4-1-1v-49.8c0-.6.4-1 1-1h30.9c.6 0 1 .4 1 1v49.8c0 .6-.4 1-1 1zm-29.9-2h28.9v-47.8H143v47.8z" class="st1"/><path d="M167.1 168.8h-19.2c-.3 0-.5-.2-.5-.5v-43.9c0-.3.2-.5.5-.5h19.2c.3 0 .5.2.5.5v43.9c0 .3-.3.5-.5.5zm-18.8-1h18.2v-42.9h-18.2v42.9zM128.5 203.5H97.6c-.6 0-1-.4-1-1v-83.9c0-.6.4-1 1-1h30.9c.6 0 1 .4 1 1v18.2c0 .6-.4 1-1 1s-1-.4-1-1v-17.2H98.6v81.9h28.9v-58c0-.6.4-1 1-1s1 .4 1 1v59c0 .5-.4 1-1 1z" class="st1"/><path d="M122.7 197.1h-19.2c-.3 0-.5-.2-.5-.5v-72.2c0-.3.2-.5.5-.5h19.2c.3 0 .5.2.5.5v72.2c0 .3-.3.5-.5.5zm-18.8-1h18.2v-71.2h-18.2v71.2z" class="st1"/><path d="M167.3 211.3H181v25.6h-13.7z" class="st2" transform="rotate(90 174.153 224.086)"/><path d="M187 196.6h62.5v50.8H187z" class="st0"/><path d="M249.5 248.4H187c-.6 0-1-.4-1-1v-50.8c0-.6.4-1 1-1h62.5c.6 0 1 .4 1 1v50.8c0 .6-.4 1-1 1zm-61.5-2h60.5v-48.8H188v48.8z" class="st1"/><path d="M6.5 202.8v-18h77.1v62.7H6.5v-35z" class="st0"/><path d="M83.6 248.5H6.5c-.6 0-1-.4-1-1v-34.9c0-.6.4-1 1-1s1 .4 1 1v33.9h75.1v-60.6H7.5v17c0 .6-.4 1-1 1s-1-.4-1-1v-18c0-.6.4-1 1-1h77.1c.6 0 1 .4 1 1v62.6c0 .5-.5 1-1 1z" class="st1"/><path d="M41.7 181.5h13.7v20.3H41.7z" class="st2" transform="rotate(90 48.527 191.693)"/><path d="M16.4 152.9h39.3v31.9H16.4z" class="st0"/><path d="M55.7 185.8H16.4c-.6 0-1-.4-1-1v-31.9c0-.6.4-1 1-1h39.3c.6 0 1 .4 1 1v31.9c0 .6-.4 1-1 1zm-38.3-2h37.3v-29.9H17.4v29.9z" class="st1"/><path d="M55.7 118.6h21.1v66.2H55.7z" class="st0"/><path d="M76.8 185.8H55.7c-.6 0-1-.4-1-1v-66.2c0-.6.4-1 1-1h21.1c.6 0 1 .4 1 1v66.2c0 .6-.4 1-1 1zm-20.1-2h19.1v-64.2H56.7v64.2z" class="st1"/><path d="M142 214.5V231H87l.1-16.5z" class="st2"/><path d="M177.2 165h13.7v20.3h-13.7z" class="st2" transform="rotate(90 184.02 175.202)"/><path d="M216.9 194.7h9.6v13.5h-9.6z" class="st2" transform="rotate(90 221.726 201.44)"/><path d="M216.5 223.2H227v38h-10.5z" class="st2" transform="rotate(90 221.726 242.175)"/><path d="M59.9 233.7h12.8v13.7H24.4v-13.7h31.9z" class="st2"/><path d="M36 170.9h6.1v21.7H36z" class="st2" transform="rotate(90 39.004 181.775)"/><path d="M36.8 150.8h5.5v11.5h-5.5z" class="st2" transform="rotate(90 39.575 156.551)"/><path d="M74.2 139.8v45h-9.8v-66.2h9.8v16.8z" class="st2"/><path d="M142 223.2H83.5c-.3 0-.5-.2-.5-.5s.2-.5.5-.5H142c.3 0 .5.2.5.5s-.2.5-.5.5zM187 239.7h-23.3c-.3 0-.5-.2-.5-.5s.2-.5.5-.5H187c.3 0 .5.2.5.5s-.3.5-.5.5zM158.9 239.7H84.6c-.3 0-.5-.2-.5-.5s.2-.5.5-.5h74.3c.3 0 .5.2.5.5s-.2.5-.5.5zM71.2 185.3h-9.8c-.3 0-.5-.2-.5-.5v-66.2c0-.3.2-.5.5-.5h9.8c.3 0 .5.2.5.5v16.8c0 .3-.2.5-.5.5s-.5-.2-.5-.5v-16.3h-8.8v65.2h8.8v-44.5c0-.3.2-.5.5-.5s.5.2.5.5v45c0 .3-.3.5-.5.5z" class="st1"/><path d="M76.8 185.8H55.7c-.6 0-1-.4-1-1v-66.2c0-.6.4-1 1-1h21.1c.6 0 1 .4 1 1v66.2c0 .6-.4 1-1 1zm-20.1-2h19.1v-64.2H56.7v64.2zM41.8 159.8H30.3c-.3 0-.5-.2-.5-.5v-6.4c0-.3.2-.5.5-.5h11.5c.3 0 .5.2.5.5v6.4c0 .3-.2.5-.5.5zm-11-1h10.5v-5.4H30.8v5.4z" class="st1"/><path d="M45.1 162.4h-18c-.3 0-.5-.2-.5-.5v-9c0-.3.2-.5.5-.5h18c.3 0 .5.2.5.5v9c0 .3-.3.5-.5.5zm-17.5-1h17v-8h-17v8zM47.5 185.3H24.7c-.3 0-.5-.2-.5-.5v-6.1c0-.3.2-.5.5-.5h22.8c.3 0 .5.2.5.5v6.1c0 .3-.2.5-.5.5zm-22.3-1H47v-5.1H25.2v5.1zM237.2 247.9h-38c-.3 0-.5-.2-.5-.5v-10.5c0-.3.2-.5.5-.5h38c.3 0 .5.2.5.5v10.5c0 .3-.2.5-.5.5zm-37.5-1h37v-9.5h-37v9.5z" class="st1"/><path d="M240.4 248.5H196c-.6 0-1-.4-1-1v-13.8c0-.6.4-1 1-1h44.4c.6 0 1 .4 1 1v13.8c0 .5-.4 1-1 1zm-43.4-2h42.4v-11.8H197v11.8zM229.1 211.4h-21.7c-.6 0-1-.4-1-1v-13.8c0-.6.4-1 1-1h21.7c.6 0 1 .4 1 1v13.8c0 .5-.5 1-1 1zm-20.7-2h19.7v-11.8h-19.7v11.8z" class="st1"/><path d="M225 206.8h-13.5c-.3 0-.5-.2-.5-.5v-9.6c0-.3.2-.5.5-.5H225c.3 0 .5.2.5.5v9.6c0 .2-.3.5-.5.5zm-13-1h12.5v-8.6H212v8.6zM193.9 186.3h-26.7c-.6 0-1-.4-1-1v-16.9c0-.6.4-1 1-1h26.7c.6 0 1 .4 1 1v16.9c0 .5-.5 1-1 1zm-25.8-2h24.7v-14.9h-24.7v14.9z" class="st1"/><path d="M190.7 182.6h-20.3c-.3 0-.5-.2-.5-.5v-13.7c0-.3.2-.5.5-.5h20.3c.3 0 .5.2.5.5v13.7c0 .2-.2.5-.5.5zm-19.8-1h19.3v-12.7h-19.3v12.7z" class="st1"/><g><path d="M142 232H83.5c-.3 0-.5-.1-.7-.3-.2-.2-.3-.4-.3-.7v-16.5c0-.6.4-1 1-1H142c.6 0 1 .4 1 1V231c0 .5-.5 1-1 1zm-57.5-2H141v-14.5H84.6l-.1 14.5z" class="st1"/></g><g><path d="M55.7 185.8H16.4c-.6 0-1-.4-1-1v-31.9c0-.6.4-1 1-1h39.3c.6 0 1 .4 1 1v31.9c0 .6-.4 1-1 1zm-38.3-2h37.3v-29.9H17.4v29.9z" class="st1"/></g><g><path d="M50 185.3H22.1c-.3 0-.5-.2-.5-.5v-8.6c0-.3.2-.5.5-.5H50c.3 0 .5.2.5.5v8.6c0 .3-.2.5-.5.5zm-27.4-1h26.9v-7.6H22.6v7.6z" class="st1"/></g><g><path d="M72.4 248.4H17.7c-.6 0-1-.4-1-1v-16.9c0-.6.4-1 1-1h54.7c.6 0 1 .4 1 1v16.9c0 .6-.5 1-1 1zm-53.7-2h52.7v-14.9H18.7v14.9z" class="st1"/></g><g><path d="M69.2 247.9H20.9c-.3 0-.5-.2-.5-.5v-13.7c0-.3.2-.5.5-.5h32c.3 0 .5.2.5.5s-.2.5-.5.5H21.4v12.7h47.3v-12.7H56.4c-.3 0-.5-.2-.5-.5s.2-.5.5-.5h12.8c.3 0 .5.2.5.5v13.7c0 .3-.2.5-.5.5z" class="st1"/></g><g><path d="M55.2 199.1H34.9c-.3 0-.5-.2-.5-.5v-13.7c0-.3.2-.5.5-.5h20.3c.3 0 .5.2.5.5v13.7c0 .2-.2.5-.5.5zm-19.8-1h19.3v-12.7H35.4v12.7z" class="st1"/></g><g><path d="M58.4 202.8H31.7c-.6 0-1-.4-1-1v-16.9c0-.6.4-1 1-1h26.7c.6 0 1 .4 1 1v16.9c0 .5-.4 1-1 1zm-25.7-2h24.7v-14.9H32.7v14.9z" class="st1"/></g><g><path d="M187 232h-33.8c-.6 0-1-.4-1-1v-17c0-.6.4-1 1-1h13.9c.6 0 1 .4 1 1s-.4 1-1 1h-12.9v15H186v-15h-14.3c-.6 0-1-.4-1-1s.4-1 1-1H187c.6 0 1 .4 1 1v17c0 .5-.5 1-1 1z" class="st1"/></g><g><path d="M187 231.5h-30.6c-.3 0-.5-.2-.5-.5v-13.7c0-.3.2-.5.5-.5H187c.3 0 .5.2.5.5V231c0 .2-.3.5-.5.5zm-30.1-1h29.6v-12.7h-29.6v12.7z" class="st1"/></g></svg>

<svg xmlns="http://www.w3.org/2000/svg" id="Layer_1" x="0" y="0" enable-background="new 0 0 256 256" version="1.1" viewBox="0 0 256 256" xml:space="preserve"><style>.st0{fill:#FFFFFF;}
	.st1{fill:#48386A;}
	.st2{fill:#9FEAFF;}</style><path d="M83.5 231H186.9V247.5H83.5z" class="st0"/><path d="M187 248.4H83.5c-.6 0-1-.4-1-1V231c0-.6.4-1 1-1H187c.6 0 1 .4 1 1v16.5c0 .5-.5.9-1 .9zm-102.5-2H186V232H84.5v14.4z" class="st1"/><path d="M142 214.5 142 231 83.5 231 83.6 214.5z" class="st0"/><path d="M142 232H83.5c-.3 0-.5-.1-.7-.3-.2-.2-.3-.4-.3-.7v-16.5c0-.6.4-1 1-1H142c.6 0 1 .4 1 1V231c0 .5-.5 1-1 1zm-57.5-2H141v-14.5H84.6l-.1 14.5z" class="st1"/><path d="M219.1 185.8 219.1 196.6 187 196.6 187 231 142 231 142 168.3 219.1 168.3 219.1 181.5z" class="st0"/><path d="M187 232h-45c-.6 0-1-.4-1-1v-62.6c0-.6.4-1 1-1h77.1c.6 0 1 .4 1 1v13.2c0 .6-.4 1-1 1s-1-.4-1-1v-12.2H143V230h43v-33.3c0-.6.4-1 1-1h31.1v-9.8c0-.6.4-1 1-1s1 .4 1 1v10.8c0 .6-.4 1-1 1H188V231c0 .5-.5 1-1 1z" class="st1"/><path d="M160.9 8.5 187 8.5 187 168.3 142 168.3 142 214.5 83.6 214.5 83.5 8.5 152.5 8.5z" class="st0"/><path d="M142 215.5H83.6c-.6 0-1-.4-1-1V8.6c0-.3.1-.5.3-.7s.4-.3.7-.3h68.9c.6 0 1 .4 1 1s-.4 1-1 1h-68v203.9H141v-45.1c0-.6.4-1 1-1h44V9.5h-25c-.6 0-1-.4-1-1s.4-1 1-1h26c.6 0 1 .4 1 1v159.8c0 .6-.4 1-1 1h-44v45.1c0 .6-.5 1.1-1 1.1z" class="st1"/><path d="M103.1 78.6 103.1 21.4 176.8 21.4 176.8 108 103.1 108 103.1 85.5z" class="st2"/><path d="M147.5 118.6H176.8V168.3H147.5z" class="st2"/><path d="M133 143.5 133 202.5 103.1 202.5 103.1 118.6 133 118.6 133 136.8z" class="st2"/><path d="M142 209.2H88.8c-.3 0-.5-.2-.5-.5V14.4c0-.3.2-.5.5-.5H108c.3 0 .5.2.5.5s-.2.5-.5.5H89.3v193.3h52.1v-39.9c0-.3.2-.5.5-.5h39.2V14.9h-69.5c-.3 0-.5-.2-.5-.5s.2-.5.5-.5h70c.3 0 .5.2.5.5v153.9c0 .3-.2.5-.5.5h-39.2v39.9c.1.3-.1.5-.4.5z" class="st1"/><path d="M172.9 109H97.6c-.6 0-1-.4-1-1V85.5c0-.6.4-1 1-1s1 .4 1 1V107h73.3V22.4H98.6v56.2c0 .6-.4 1-1 1s-1-.4-1-1V21.4c0-.6.4-1 1-1h75.3c.6 0 1 .4 1 1V108c0 .6-.4 1-1 1z" class="st1"/><path d="M167.1 102.7h-63.6c-.3 0-.5-.2-.5-.5V27.3c0-.3.2-.5.5-.5h63.6c.3 0 .5.2.5.5v74.9c0 .3-.3.5-.5.5zm-63.2-1h62.6V27.8h-62.6v73.9z" class="st1"/><path d="M117.9 88.3c-.1 0-.2 0-.3-.1-.2-.2-.2-.5 0-.7l40.6-46c.2-.2.5-.2.7 0 .2.2.2.5 0 .7l-40.6 46c-.1 0-.3.1-.4.1zM131 86c-.1 0-.2 0-.3-.1-.2-.2-.2-.5-.1-.7l25.2-30.6c.2-.2.5-.2.7-.1.2.2.2.5.1.7l-25.2 30.6c-.1.2-.2.2-.4.2zM172.9 169.3H142c-.6 0-1-.4-1-1v-49.8c0-.6.4-1 1-1h30.9c.6 0 1 .4 1 1v49.8c0 .6-.4 1-1 1zm-29.9-2h28.9v-47.8H143v47.8z" class="st1"/><path d="M167.1 168.8h-19.2c-.3 0-.5-.2-.5-.5v-43.9c0-.3.2-.5.5-.5h19.2c.3 0 .5.2.5.5v43.9c0 .3-.3.5-.5.5zm-18.8-1h18.2v-42.9h-18.2v42.9zM128.5 203.5H97.6c-.6 0-1-.4-1-1v-83.9c0-.6.4-1 1-1h30.9c.6 0 1 .4 1 1v18.2c0 .6-.4 1-1 1s-1-.4-1-1v-17.2H98.6v81.9h28.9v-58c0-.6.4-1 1-1s1 .4 1 1v59c0 .5-.4 1-1 1z" class="st1"/><path d="M122.7 197.1h-19.2c-.3 0-.5-.2-.5-.5v-72.2c0-.3.2-.5.5-.5h19.2c.3 0 .5.2.5.5v72.2c0 .3-.3.5-.5.5zm-18.8-1h18.2v-71.2h-18.2v71.2z" class="st1"/><path d="M167.3 211.3H181V236.9H167.3z" class="st2" transform="rotate(90 174.153 224.086)"/><path d="M187 196.6H249.5V247.39999999999998H187z" class="st0"/><path d="M249.5 248.4H187c-.6 0-1-.4-1-1v-50.8c0-.6.4-1 1-1h62.5c.6 0 1 .4 1 1v50.8c0 .6-.4 1-1 1zm-61.5-2h60.5v-48.8H188v48.8z" class="st1"/><path d="M6.5 202.8 6.5 184.8 83.6 184.8 83.6 247.5 6.5 247.5 6.5 212.5z" class="st0"/><path d="M83.6 248.5H6.5c-.6 0-1-.4-1-1v-34.9c0-.6.4-1 1-1s1 .4 1 1v33.9h75.1v-60.6H7.5v17c0 .6-.4 1-1 1s-1-.4-1-1v-18c0-.6.4-1 1-1h77.1c.6 0 1 .4 1 1v62.6c0 .5-.5 1-1 1z" class="st1"/><path d="M41.7 181.5H55.400000000000006V201.8H41.7z" class="st2" transform="rotate(90 48.527 191.693)"/><path d="M16.4 152.9H55.699999999999996V184.8H16.4z" class="st0"/><path d="M55.7 185.8H16.4c-.6 0-1-.4-1-1v-31.9c0-.6.4-1 1-1h39.3c.6 0 1 .4 1 1v31.9c0 .6-.4 1-1 1zm-38.3-2h37.3v-29.9H17.4v29.9z" class="st1"/><path d="M55.7 118.6H76.80000000000001V184.8H55.7z" class="st0"/><path d="M76.8 185.8H55.7c-.6 0-1-.4-1-1v-66.2c0-.6.4-1 1-1h21.1c.6 0 1 .4 1 1v66.2c0 .6-.4 1-1 1zm-20.1-2h19.1v-64.2H56.7v64.2z" class="st1"/><path d="M142 214.5 142 231 87 231 87.1 214.5z" class="st2"/><path d="M177.2 165H190.89999999999998V185.3H177.2z" class="st2" transform="rotate(90 184.02 175.202)"/><path d="M216.9 194.7H226.5V208.2H216.9z" class="st2" transform="rotate(90 221.726 201.44)"/><path d="M216.5 223.2H227V261.2H216.5z" class="st2" transform="rotate(90 221.726 242.175)"/><path d="M59.9 233.7 72.7 233.7 72.7 247.4 24.4 247.4 24.4 233.7 56.3 233.7z" class="st2"/><path d="M36 170.9H42.1V192.6H36z" class="st2" transform="rotate(90 39.004 181.775)"/><path d="M36.8 150.8H42.3V162.3H36.8z" class="st2" transform="rotate(90 39.575 156.551)"/><path d="M74.2 139.8 74.2 184.8 64.4 184.8 64.4 118.6 74.2 118.6 74.2 135.4z" class="st2"/><path d="M142 223.2H83.5c-.3 0-.5-.2-.5-.5s.2-.5.5-.5H142c.3 0 .5.2.5.5s-.2.5-.5.5zM187 239.7h-23.3c-.3 0-.5-.2-.5-.5s.2-.5.5-.5H187c.3 0 .5.2.5.5s-.3.5-.5.5zM158.9 239.7H84.6c-.3 0-.5-.2-.5-.5s.2-.5.5-.5h74.3c.3 0 .5.2.5.5s-.2.5-.5.5zM71.2 185.3h-9.8c-.3 0-.5-.2-.5-.5v-66.2c0-.3.2-.5.5-.5h9.8c.3 0 .5.2.5.5v16.8c0 .3-.2.5-.5.5s-.5-.2-.5-.5v-16.3h-8.8v65.2h8.8v-44.5c0-.3.2-.5.5-.5s.5.2.5.5v45c0 .3-.3.5-.5.5z" class="st1"/><path d="M76.8 185.8H55.7c-.6 0-1-.4-1-1v-66.2c0-.6.4-1 1-1h21.1c.6 0 1 .4 1 1v66.2c0 .6-.4 1-1 1zm-20.1-2h19.1v-64.2H56.7v64.2zM41.8 159.8H30.3c-.3 0-.5-.2-.5-.5v-6.4c0-.3.2-.5.5-.5h11.5c.3 0 .5.2.5.5v6.4c0 .3-.2.5-.5.5zm-11-1h10.5v-5.4H30.8v5.4z" class="st1"/><path d="M45.1 162.4h-18c-.3 0-.5-.2-.5-.5v-9c0-.3.2-.5.5-.5h18c.3 0 .5.2.5.5v9c0 .3-.3.5-.5.5zm-17.5-1h17v-8h-17v8zM47.5 185.3H24.7c-.3 0-.5-.2-.5-.5v-6.1c0-.3.2-.5.5-.5h22.8c.3 0 .5.2.5.5v6.1c0 .3-.2.5-.5.5zm-22.3-1H47v-5.1H25.2v5.1zM237.2 247.9h-38c-.3 0-.5-.2-.5-.5v-10.5c0-.3.2-.5.5-.5h38c.3 0 .5.2.5.5v10.5c0 .3-.2.5-.5.5zm-37.5-1h37v-9.5h-37v9.5z" class="st1"/><path d="M240.4 248.5H196c-.6 0-1-.4-1-1v-13.8c0-.6.4-1 1-1h44.4c.6 0 1 .4 1 1v13.8c0 .5-.4 1-1 1zm-43.4-2h42.4v-11.8H197v11.8zM229.1 211.4h-21.7c-.6 0-1-.4-1-1v-13.8c0-.6.4-1 1-1h21.7c.6 0 1 .4 1 1v13.8c0 .5-.5 1-1 1zm-20.7-2h19.7v-11.8h-19.7v11.8z" class="st1"/><path d="M225 206.8h-13.5c-.3 0-.5-.2-.5-.5v-9.6c0-.3.2-.5.5-.5H225c.3 0 .5.2.5.5v9.6c0 .2-.3.5-.5.5zm-13-1h12.5v-8.6H212v8.6zM193.9 186.3h-26.7c-.6 0-1-.4-1-1v-16.9c0-.6.4-1 1-1h26.7c.6 0 1 .4 1 1v16.9c0 .5-.5 1-1 1zm-25.8-2h24.7v-14.9h-24.7v14.9z" class="st1"/><path d="M190.7 182.6h-20.3c-.3 0-.5-.2-.5-.5v-13.7c0-.3.2-.5.5-.5h20.3c.3 0 .5.2.5.5v13.7c0 .2-.2.5-.5.5zm-19.8-1h19.3v-12.7h-19.3v12.7z" class="st1"/><g><path d="M142 232H83.5c-.3 0-.5-.1-.7-.3-.2-.2-.3-.4-.3-.7v-16.5c0-.6.4-1 1-1H142c.6 0 1 .4 1 1V231c0 .5-.5 1-1 1zm-57.5-2H141v-14.5H84.6l-.1 14.5z" class="st1"/></g><g><path d="M55.7 185.8H16.4c-.6 0-1-.4-1-1v-31.9c0-.6.4-1 1-1h39.3c.6 0 1 .4 1 1v31.9c0 .6-.4 1-1 1zm-38.3-2h37.3v-29.9H17.4v29.9z" class="st1"/></g><g><path d="M50 185.3H22.1c-.3 0-.5-.2-.5-.5v-8.6c0-.3.2-.5.5-.5H50c.3 0 .5.2.5.5v8.6c0 .3-.2.5-.5.5zm-27.4-1h26.9v-7.6H22.6v7.6z" class="st1"/></g><g><path d="M72.4 248.4H17.7c-.6 0-1-.4-1-1v-16.9c0-.6.4-1 1-1h54.7c.6 0 1 .4 1 1v16.9c0 .6-.5 1-1 1zm-53.7-2h52.7v-14.9H18.7v14.9z" class="st1"/></g><g><path d="M69.2 247.9H20.9c-.3 0-.5-.2-.5-.5v-13.7c0-.3.2-.5.5-.5h32c.3 0 .5.2.5.5s-.2.5-.5.5H21.4v12.7h47.3v-12.7H56.4c-.3 0-.5-.2-.5-.5s.2-.5.5-.5h12.8c.3 0 .5.2.5.5v13.7c0 .3-.2.5-.5.5z" class="st1"/></g><g><path d="M55.2 199.1H34.9c-.3 0-.5-.2-.5-.5v-13.7c0-.3.2-.5.5-.5h20.3c.3 0 .5.2.5.5v13.7c0 .2-.2.5-.5.5zm-19.8-1h19.3v-12.7H35.4v12.7z" class="st1"/></g><g><path d="M58.4 202.8H31.7c-.6 0-1-.4-1-1v-16.9c0-.6.4-1 1-1h26.7c.6 0 1 .4 1 1v16.9c0 .5-.4 1-1 1zm-25.7-2h24.7v-14.9H32.7v14.9z" class="st1"/></g><g><path d="M187 232h-33.8c-.6 0-1-.4-1-1v-17c0-.6.4-1 1-1h13.9c.6 0 1 .4 1 1s-.4 1-1 1h-12.9v15H186v-15h-14.3c-.6 0-1-.4-1-1s.4-1 1-1H187c.6 0 1 .4 1 1v17c0 .5-.5 1-1 1z" class="st1"/></g><g><path d="M187 231.5h-30.6c-.3 0-.5-.2-.5-.5v-13.7c0-.3.2-.5.5-.5H187c.3 0 .5.2.5.5V231c0 .2-.3.5-.5.5zm-30.1-1h29.6v-12.7h-29.6v12.7z" class="st1"/></g></svg>
